X:1
T:Up and Onward
T:Charles Hutchinson Gabriel
T:Up and Onward
T:Public Domain
T:Public Domain
C:Charles Hutchinson Gabriel
Z:Public Domain
%%score ( 1 2 ) ( 3 4 )
L:1/8
M:4/4
K:Ab
V:1 treble 
V:2 treble 
V:3 bass 
V:4 bass 
V:1
 E>E | A2 E2 C2 D2 | E3 F E2 [EA]2 | [Ed]2 [Ec]2 [FB]2 [FA]2 | (G3 F) E2 (FG) | A2 E2 C2 D2 | %6
w: 1.~Up and|Christ- ian work- ers,|do not stray; Great|few the toil- ers,|Up * and on- *||
w: 2.~Where the|bear their bur- dens|heat of day, Where|sheaves are wav- ing,|Up * and on- *||
w: 3.~Where the|fierce- ly rag- es|field to- day, With|shield and buck- ler,|Up * and on- *||
w: 4.~Con- se-|to the ser- vice|and our Lord; Ev-|true and ear- nest,|We * shall gain *||
 E3 F E2 [Ec]2 | [EB]2 [FA]2 [EG]2 [=DF]2 | (E2 B,2 A,2 D2) ||"^Refrain" E2 z c [Ec]2 [Ec]2 | %10
w: ||||
w: ||||
w: ||||
w: ||||
 [Ec]2 (EF) [DE]2 [B,D]2 | [Ed]2 [Ed]2 E2 z G x | [DF]2 [D_F]2 [DE]4 | [CA]2 [EA]2 E2 z E x | %14
w: ||||
w: ||||
w: ||||
w: ||||
 [Ec]2 [Ec]2 [Dd]2 [A=d]2 | [Ae]2 [Af]2 [Ae]3 A | [Ec]2 [DB]2 [CA]2 |] %17
w: |||
w: |||
w: |||
w: |||
V:2
 E>E | A2 E2 C2 D2 | E3 F E2 x2 | x8 | E4 E2 FG | A2 E2 C2 D2 | E3 F E2 x2 | x8 | E8 || c3 E2 x3 | %10
w: on- ward,|Life is fleet- ing,|the har- vest,||ward, haste a- way!||||||
w: reap- ers|In the toil and|the gold- en||ward, haste a- way!||||||
w: con- flict|On the bat- tle-|our ban- ner,||ward, haste a- way!||||||
w: crat- ed|Of our Sav- ior|er faith- ful,||the great re- ward.||||||
 x2 C2 x4 | x4 d3 D2 | x8 | x4 B3 E2 | x8 | x7 A | x6 |] %17
w: |||||||
w: |||||||
w: |||||||
w: |||||||
V:3
 E,>E, | A,2 E,2 C,2 D,2 | E,3 F, E,2 [C,A,]2 | [B,,G,]2 [A,,A,]2 [D,A,]2 [=D,B,]2 | %4
w: ~ ~|~ ~ ~ ~|~ ~ ~ ~|~ ~ ~ ~|
 (B,3 A,) [E,G,]2 (F,G,) | A,2 E,2 C,2 D,2 | E,3 F, E,2 [A,,A,]2 | %7
w: ~ * ~ ~ *|~ Haste a- way,|work- ers, Hear the|
 [G,,B,]2 [A,,C]2 [B,,B,]2 [B,,A,]2 | ([E,G,]2 [D,G,]2 [C,A,]2 [B,,G,]2) || %9
w: ing call; Go and|res- * * *|
 [A,,A,]2 [A,,E,]2 [A,,A,]2 [A,,E,]2 | [A,,A,]2 [A,,E,]2 [B,,G,]2 [E,G,]2 | %11
w: cue those that per-|ish, Lend a help-|
 [B,,G,]2 [E,G,]2 [B,,G,]2 ([E,G,][=E,B,]) x | [F,B,]2 [^F,B,]2 (G,2 E,2) | %13
w: ing hand to all. *||
 [A,,A,]2 [C,A,]2 [E,G,]2 [G,B,]2 x | A,2 [_G,A,]2 [F,A,]2 [_F,=B,]2 | %15
w: ||
 [E,C]2 [=D,=B,]2 [E,C]3 [E,C] | [E,A,]2 [E,G,]2 [A,,A,]2 |] %17
w: ||
V:4
 E,>E, | A,2 E,2 C,2 D,2 | E,3 F, E,2 x2 | x8 | E,4 F,G, x2 | A,2 E,2 C,2 x2 | E,3 F, E,2 x2 | x8 | %8
w: ~ ~|~ ~ ~ ~|~ ~ ~||~ ~ ~|then, Christ- ian|deep, des- pair-||
 x8 || x8 | x8 | x9 | x4 B,4 | x9 | A,2 x6 | x8 | x6 |] %17
w: |||||||||

